X: 38329
T: Stack Of Rye, The
R: hornpipe
M: 4/4
K: Adorian
AB|:ceec BddB|ABAG EGDE|GABd dB e2|dBAB G2 AB|
ceec BddB|ABAG EBed|B3A GA (3BAG|1 A6 AB:|2 A6 (3Bcd||
|:eaab a3b|aged e2 d2|(3efg (3fga gbag|gedB G2 AB|
ceec BddB|ABAG EBed|B2BA GABG|1 A6 (3Bcd:|2 A6 AB||

